X:1
T:Aroplane : Namntes
E:12
Z:Roger Ngaret (94-95)
R:aeroplane
C:Namntes
S:
A:Bretagne
M:2/4
L:1/16
K:C
Q:1/4=92
"G"G2G2 c2BA | G2GA G4 | "D"A2A2 B2B2 | "G"cBce c4 ::\
c4 B4 | "D"AcBA G4 | E2FE DEFG |1 A2B2 c2G2 :|2 A2B2 c4 |]
